X:386
T:Ladar Mor a' Ghogain
R:Reel
B:The Athole Collection
M:C|
L:1/8
K:E Minor
B|:~E2 BG FDAF|~E2 BG BEEe|faef dBAF|~E2 BG BEBe:|
geeb fddf|geeb geeb|geeb fddf|geeb efec|dfec dBAF|Eeeg faef|
dfec dBFA|~E2 BG BEBe||

